X:2150
L:1/4
Q:1/8=200
M:3/4
K:D
|: A B A | G F E/F/ | G A G | E F D | E G F | E/F/E/D/C/D/ |1 E F G | E F D :|2 G F E | D3 |: 
 E F D | E/F/ E/D/ C/D/ | E F D | A, B, G, | E G F | E/F/ E/D/ C/D/ |1 E F G | E3 :|

